psx/_inc/system.svg

<svg xmlns="http://www.w3.org/2000/svg"><g fill="#fff"><path d="m181.056 31.612v31.449 31.446h5.509 5.508v-28.072-28.072h6.761c4.878 0 7.079.132 7.907.477 1.636.685 3.318 2.765 4.008 4.942.363 1.144.66 3.623.766 6.373.219 5.635-.433 9.135-2.153 11.405-1.795 2.372-2.891 2.744-7.961 2.744h-4.353v3.41 3.419l6.838-.132 6.842-.135 2.42-1.143c4.422-2.087 7.631-6.353 8.928-11.85.723-3.068.711-9.93-.024-13.224-.706-3.167-2.177-6.355-3.831-8.285-.69-.808-2.029-1.964-2.963-2.567-3.206-2.056-4.443-2.185-20.066-2.185zm48.681 0v31.449 31.446h5.509 5.508v-31.446-31.449h-5.508zm138.139 0c-4.932 0-10.009.174-11.282.378-2.864.456-6.211 1.972-8.105 3.686-1.909 1.723-3.54 4.314-4.419 7.037-.549 1.693-.721 3.236-.745 6.488-.03 4.485.349 6.394 1.889 9.414 1.002 1.966 3.674 4.803 5.508 5.863 2.129 1.234 4.855 1.888 9.538 2.266 3.563.289 4.395.466 5.554 1.234.912.601 1.711 1.588 2.386 2.963.952 1.937 1.006 2.339 1 6.506-.003 4.155-.063 4.566-.979 6.31-.618 1.183-1.513 2.222-2.452 2.843l-1.477.979-9.361.111-9.351.099v3.365 3.353h10.636c6.473 0 11.384-.159 12.528-.399 4.353-.918 7.976-3.74 9.735-7.586 1.483-3.236 2.006-6.566 1.811-11.561-.202-5.266-.982-8.132-3.087-11.279-2.611-3.908-5.532-5.25-12.956-5.929-2.747-.252-5.56-.696-6.254-.987-1.528-.649-2.957-2.279-3.584-4.089-.624-1.783-.615-6.953.021-9.135.624-2.159 2.522-4.143 4.521-4.744.964-.291 4.209-.432 9.67-.432h8.228v-3.377-3.377zm126.59 0v4.62 4.62h5.509 5.509v-4.62-4.62h-5.509zm-105.924 7.105.114 22.654c.096 22.299.111 22.686.877 24.71.426 1.128 1.339 2.819 2.029 3.761 1.414 1.925 3.251 3.272 5.575 4.086 1.12.393 3.017.546 6.629.558l5.064.021v-3.374-3.374h-3.308c-3.149 0-3.36-.045-4.254-.979-.556-.579-1.099-1.711-1.318-2.756-.243-1.129-.342-7.001-.279-16.169l.099-14.389 5.953-.102 5.95-.099v-3.362-3.368h-6.04-6.04v-3.909-3.909h-5.518zm76.075 0v22.375c0 21.641.027 22.455.736 24.61.84 2.564 2.554 5.107 4.419 6.527.711.543 2.119 1.276 3.131 1.621 1.408.486 2.984.636 6.727.645l4.885.012v-3.377-3.374h-3.153c-2.635 0-3.302-.114-4.073-.724-.511-.399-1.09-1.318-1.291-2.041-.225-.811-.366-7.199-.366-16.514v-15.191h6.052 6.052l-.099-3.287-.102-3.287-5.953-.099-5.947-.102v-3.897-3.897h-5.509zm-9.715 7.728-11.762.192c-12.644.192-13.953.348-17.667 2.23-4.151 2.105-7.045 6.191-8.357 11.792-.55 2.339-.646 4.35-.646 13.236 0 10.093.03 10.562.811 12.495 1.576 3.891 3.92 6.295 7.295 7.46 1.489.516 3.041.633 8.15.642l6.311.012v-3.377-3.374h-4.419c-4.185 0-4.47-.051-5.464-.889-.661-.552-1.195-1.477-1.444-2.464-.495-1.961-.519-17.421-.033-21.165.687-5.32 1.888-7.811 4.386-9.15.861-.459 2.344-.625 6.529-.733l5.419-.144v20.654 20.645h5.689 5.683v-13.272c0-7.295-.114-18.111-.243-24.028zm-166.889.012-11.813.177c-12.84.198-14.686.432-18.19 2.311-4.074 2.18-6.979 6.488-8.207 12.159-.781 3.602-1.144 18.354-.544 21.918.523 3.113 1.979 6.247 3.72 8.018 1.282 1.303 3.407 2.591 5.184 3.131.49.15 3.807.282 7.373.3l6.485.033v-3.377-3.371h-4.542c-5.122 0-5.794-.243-6.761-2.444-.432-.982-.6-2.909-.711-8.105-.159-7.385.354-15.398 1.155-18.058.718-2.389 2.057-4.224 3.63-4.995 1.15-.564 2.206-.673 6.694-.679l5.329-.012.09 20.522.09 20.519h5.509 5.509v-24.028zm11.861.078c-3.2 0-5.815.042-5.809.09s3.659 10.774 8.117 23.842l8.109 23.761-4.566 11.771c-2.51 6.482-4.563 11.828-4.563 11.882s2.179.054 4.842 0l4.842-.099 14.155-35.535c7.79-19.543 14.17-35.574 14.17-35.622.003-.048-2.297-.09-5.119-.09-3.722 0-5.208.123-5.407.447-.15.243-2.873 7.151-6.04 15.355-3.167 8.205-5.902 14.963-6.085 15.026-.186.06-2.702-6.851-5.584-15.359l-5.241-15.469zm194.592 0v23.986 23.983h5.509 5.509v-23.983-23.986h-5.509zm66.628.177-.105 23.896h.015l-.102 23.896h5.698 5.685v-20.642-20.654l5.416.144c5.755.15 6.716.391 8.331 2.12 1.267 1.357 2.173 3.827 2.576 7.04.21 1.681.378 9.405.378 17.502v14.49h5.509 5.505l-.012-14.124c0-14.98-.264-18.535-1.708-22.597-1.963-5.523-5.578-8.799-11.459-10.393-1.945-.528-4.022-.621-14.004-.645zm-27.85.102c-3.107 0-6.205.39-8.427 1.153-2.963 1.02-4.821 2.212-6.689 4.287-2.023 2.251-3.488 5.301-4.349 9.027-.529 2.284-.652 4.203-.622 9.771.03 5.86.147 7.358.778 9.673 1.071 3.93 2.47 6.577 4.596 8.73 2.095 2.116 5.19 3.741 8.676 4.53 1.567.354 3.74.465 7.061.378 5.727-.153 8.45-.888 11.792-3.176 2.8-1.915 4.92-4.935 6.121-8.739 1.714-5.431 2.017-14.383.699-20.987-.639-3.209-2.197-6.689-3.932-8.808-1.631-1.99-4.302-3.735-7.16-4.686-2.312-.763-5.44-1.153-8.544-1.153zm.132 6.616c1.612 0 3.23.313 4.497.955 1.654.838 2.696 2.3 3.596 5.062.592 1.807.739 3.452.88 9.429.18 7.805-.177 11.483-1.39 14.257-.853 1.96-2.233 3.482-3.752 4.13-.649.277-2.357.49-3.942.49-2.246 0-3.107-.159-4.362-.82-.988-.522-1.939-1.417-2.555-2.41-1.606-2.594-2.134-5.992-2.155-13.648-.018-7.289.357-10.219 1.702-13.182.453-1.005 1.372-2.233 2.053-2.756 1.294-.984 3.357-1.507 5.428-1.507z"/><path d="m87.746 25.695-.108 97.86-26.22-8.526v-115.029l33.47 8.85c21.423 5.758 34.533 16.95 34.319 36.565-.213 22.815-10.765 31.981-31.335 26.013v-44.989c-.003-5.437-10.126-5.755-10.126-.744z"/><path d="m49.371 96.05-12.362 4.161c-7.998 2.771-14.818-3.731-7.463-6.4l5.968-2.129-22.492-7.144c-6.925 2.347-13.431 7.358-13.002 14.394.427 7.142 16.734 8.85 29.312 10.874 11.723 1.918 22.384.852 32.083-2.561v-7.355zm38.477 27.508 22.918-7.994-23.131-7.355v14.818z"/><path d="m148.82 102.13.426-.108c10.021-3.516 14.284-8.424 13.218-13.005-1.705-7.677-13.962-11.834-32.83-13.218-13.536-.961-26.86 2.023-39.864 6.499l-2.132.748 23.344 7.253 13.641-4.588c14.284-2.665 20.042 2.027 6.293 6.398l-6.824 2.344zm-87.402-33.9-10.339 3.519 10.339 3.197z"/><path d="m110.769 115.561 38.051-13.431-24.731-7.677-36.451 12.474v1.279zm-49.351-23.56-12.044 4.049 12.044 3.84zm26.217 6.292v-15.244l23.344 7.25zm-52.121-6.611 25.901-9.276v-7.46l-10.339-3.197-37.519 12.684c-.105 0-.319.105-.532.105z"/></g></svg>

<?xml version="1.0" encoding="utf-8"?>
<svg version="1.1" id="svg2" xmlns="http://www.w3.org/2000/svg">
  <g>
    <path id="path2998" d="M 181.056 31.612 L 181.056 63.061 L 181.056 94.507 L 186.565 94.507 L 192.073 94.507 L 192.073 66.435 L 192.073 38.363 L 198.834 38.363 C 203.712 38.363 205.913 38.495 206.741 38.84 C 208.377 39.525 210.059 41.605 210.749 43.782 C 211.112 44.926 211.409 47.405 211.515 50.155 C 211.734 55.79 211.082 59.29 209.362 61.56 C 207.567 63.932 206.471 64.304 201.401 64.304 L 197.048 64.304 L 197.048 67.714 L 197.048 71.133 L 203.886 71.001 L 210.728 70.866 L 213.148 69.723 C 217.57 67.636 220.779 63.37 222.076 57.873 C 222.799 54.805 222.787 47.943 222.052 44.649 C 221.346 41.482 219.875 38.294 218.221 36.364 C 217.531 35.556 216.192 34.4 215.258 33.797 C 212.052 31.741 210.815 31.612 195.192 31.612 L 181.056 31.612 Z M 229.737 31.612 L 229.737 63.061 L 229.737 94.507 L 235.246 94.507 L 240.754 94.507 L 240.754 63.061 L 240.754 31.612 L 235.246 31.612 L 229.737 31.612 Z M 367.876 31.612 C 362.944 31.612 357.867 31.786 356.594 31.99 C 353.73 32.446 350.383 33.962 348.489 35.676 C 346.58 37.399 344.949 39.99 344.07 42.713 C 343.521 44.406 343.349 45.949 343.325 49.201 C 343.295 53.686 343.674 55.595 345.214 58.615 C 346.216 60.581 348.888 63.418 350.722 64.478 C 352.851 65.712 355.577 66.366 360.26 66.744 C 363.823 67.033 364.655 67.21 365.814 67.978 C 366.726 68.579 367.525 69.566 368.2 70.941 C 369.152 72.878 369.206 73.28 369.2 77.447 C 369.197 81.602 369.137 82.013 368.221 83.757 C 367.603 84.94 366.708 85.979 365.769 86.6 L 364.292 87.579 L 354.931 87.69 L 345.58 87.789 L 345.58 91.154 L 345.58 94.507 L 356.216 94.507 C 362.689 94.507 367.6 94.348 368.744 94.108 C 373.097 93.19 376.72 90.368 378.479 86.522 C 379.962 83.286 380.485 79.956 380.29 74.961 C 380.088 69.695 379.308 66.829 377.203 63.682 C 374.592 59.774 371.671 58.432 364.247 57.753 C 361.5 57.501 358.687 57.057 357.993 56.766 C 356.465 56.117 355.036 54.487 354.409 52.677 C 353.785 50.894 353.794 45.724 354.43 43.542 C 355.054 41.383 356.952 39.399 358.951 38.798 C 359.915 38.507 363.16 38.366 368.621 38.366 L 376.849 38.366 L 376.849 34.989 L 376.849 31.612 L 367.876 31.612 L 367.876 31.612 Z M 494.466 31.612 L 494.466 36.232 L 494.466 40.852 L 499.975 40.852 L 505.484 40.852 L 505.484 36.232 L 505.484 31.612 L 499.975 31.612 L 494.466 31.612 Z M 388.542 38.717 L 388.656 61.371 C 388.752 83.67 388.767 84.057 389.533 86.081 C 389.959 87.209 390.872 88.9 391.562 89.842 C 392.976 91.767 394.813 93.114 397.137 93.928 C 398.257 94.321 400.154 94.474 403.766 94.486 L 408.83 94.507 L 408.83 91.133 L 408.83 87.759 L 405.522 87.759 C 402.373 87.759 402.162 87.714 401.268 86.78 C 400.712 86.201 400.169 85.069 399.95 84.024 C 399.707 82.895 399.608 77.023 399.671 67.855 L 399.77 53.466 L 405.723 53.364 L 411.673 53.265 L 411.673 49.903 L 411.673 46.535 L 405.633 46.535 L 399.593 46.535 L 399.593 42.626 L 399.593 38.717 L 394.075 38.717 L 388.542 38.717 L 388.542 38.717 Z M 464.617 38.717 L 464.617 61.092 C 464.617 82.733 464.644 83.547 465.353 85.702 C 466.193 88.266 467.907 90.809 469.772 92.229 C 470.483 92.772 471.891 93.505 472.903 93.85 C 474.311 94.336 475.887 94.486 479.63 94.495 L 484.515 94.507 L 484.515 91.13 L 484.515 87.756 L 481.362 87.756 C 478.727 87.756 478.06 87.642 477.289 87.032 C 476.778 86.633 476.199 85.714 475.998 84.991 C 475.773 84.18 475.632 77.792 475.632 68.477 L 475.632 53.286 L 481.684 53.286 L 487.736 53.286 L 487.637 49.999 L 487.535 46.712 L 481.582 46.613 L 475.635 46.511 L 475.635 42.614 L 475.635 38.717 L 470.126 38.717 L 464.617 38.717 L 464.617 38.717 Z M 454.902 46.445 L 443.14 46.637 C 430.496 46.829 429.187 46.985 425.473 48.867 C 421.322 50.972 418.428 55.058 417.116 60.659 C 416.566 62.998 416.47 65.009 416.47 73.895 C 416.47 83.988 416.5 84.457 417.281 86.39 C 418.857 90.281 421.201 92.685 424.576 93.85 C 426.065 94.366 427.617 94.483 432.726 94.492 L 439.037 94.504 L 439.037 91.127 L 439.037 87.753 L 434.618 87.753 C 430.433 87.753 430.148 87.702 429.154 86.864 C 428.493 86.312 427.959 85.387 427.71 84.4 C 427.215 82.439 427.191 66.979 427.677 63.235 C 428.364 57.915 429.565 55.424 432.063 54.085 C 432.924 53.626 434.407 53.46 438.592 53.352 L 444.011 53.208 L 444.011 73.862 L 444.011 94.507 L 449.7 94.507 L 455.383 94.507 L 455.383 81.235 C 455.383 73.94 455.269 63.124 455.14 57.207 L 454.902 46.445 Z M 288.013 46.457 L 276.2 46.634 C 263.36 46.832 261.514 47.066 258.01 48.945 C 253.936 51.125 251.031 55.433 249.803 61.104 C 249.022 64.706 248.659 79.458 249.259 83.022 C 249.782 86.135 251.238 89.269 252.979 91.04 C 254.261 92.343 256.386 93.631 258.163 94.171 C 258.653 94.321 261.97 94.453 265.536 94.471 L 272.021 94.504 L 272.021 91.127 L 272.021 87.756 L 267.479 87.756 C 262.357 87.756 261.685 87.513 260.718 85.312 C 260.286 84.33 260.118 82.403 260.007 77.207 C 259.848 69.822 260.361 61.809 261.162 59.149 C 261.88 56.76 263.219 54.925 264.792 54.154 C 265.942 53.59 266.998 53.481 271.486 53.475 L 276.815 53.463 L 276.905 73.985 L 276.995 94.504 L 282.504 94.504 L 288.013 94.504 L 288.013 70.476 L 288.013 46.457 L 288.013 46.457 Z M 299.874 46.535 C 296.674 46.535 294.059 46.577 294.065 46.625 C 294.071 46.673 297.724 57.399 302.182 70.467 L 310.291 94.228 L 305.725 105.999 C 303.215 112.481 301.162 117.827 301.162 117.881 C 301.162 117.935 303.341 117.935 306.004 117.881 L 310.846 117.782 L 325.001 82.247 C 332.791 62.704 339.171 46.673 339.171 46.625 C 339.174 46.577 336.874 46.535 334.052 46.535 C 330.33 46.535 328.844 46.658 328.645 46.982 C 328.495 47.225 325.772 54.133 322.605 62.337 C 319.438 70.542 316.703 77.3 316.52 77.363 C 316.334 77.423 313.818 70.512 310.936 62.004 L 305.695 46.535 L 299.874 46.535 Z M 494.466 46.535 L 494.466 70.521 L 494.466 94.504 L 499.975 94.504 L 505.484 94.504 L 505.484 70.521 L 505.484 46.535 L 499.975 46.535 L 494.466 46.535 Z M 561.094 46.712 L 560.989 70.608 L 561.004 70.608 L 560.902 94.504 L 566.6 94.504 L 572.285 94.504 L 572.285 73.862 L 572.285 53.208 L 577.701 53.352 C 583.456 53.502 584.417 53.743 586.032 55.472 C 587.299 56.829 588.205 59.299 588.608 62.512 C 588.818 64.193 588.986 71.917 588.986 80.014 L 588.986 94.504 L 594.495 94.504 L 600 94.504 L 599.988 80.38 C 599.988 65.4 599.724 61.845 598.28 57.783 C 596.317 52.26 592.702 48.984 586.821 47.39 C 584.876 46.862 582.799 46.769 572.817 46.745 L 561.094 46.712 L 561.094 46.712 Z M 533.244 46.814 C 530.137 46.814 527.039 47.204 524.817 47.967 C 521.854 48.987 519.996 50.179 518.128 52.254 C 516.105 54.505 514.64 57.555 513.779 61.281 C 513.25 63.565 513.127 65.484 513.157 71.052 C 513.187 76.912 513.304 78.41 513.935 80.725 C 515.006 84.655 516.405 87.302 518.531 89.455 C 520.626 91.571 523.721 93.196 527.207 93.985 C 528.774 94.339 530.947 94.45 534.268 94.363 C 539.995 94.21 542.718 93.475 546.06 91.187 C 548.86 89.272 550.98 86.252 552.181 82.448 C 553.895 77.017 554.198 68.065 552.88 61.461 C 552.241 58.252 550.683 54.772 548.948 52.653 C 547.317 50.663 544.646 48.918 541.788 47.967 C 539.476 47.204 536.348 46.814 533.244 46.814 L 533.244 46.814 Z M 533.376 53.43 C 534.988 53.43 536.606 53.743 537.873 54.385 C 539.527 55.223 540.569 56.685 541.469 59.447 C 542.061 61.254 542.208 62.899 542.349 68.876 C 542.529 76.681 542.172 80.359 540.959 83.133 C 540.106 85.093 538.726 86.615 537.207 87.263 C 536.558 87.54 534.85 87.753 533.265 87.753 C 531.019 87.753 530.158 87.594 528.903 86.933 C 527.915 86.411 526.964 85.516 526.348 84.523 C 524.742 81.929 524.214 78.531 524.193 70.875 C 524.175 63.586 524.55 60.656 525.895 57.693 C 526.348 56.688 527.267 55.46 527.948 54.937 C 529.242 53.953 531.305 53.43 533.376 53.43 L 533.376 53.43 Z" style="fill:#ffffff;fill-opacity:1"/>
    <path id="path7" fill="#DE0029" d="M 87.746 25.695 L 87.638 123.555 L 61.418 115.029 L 61.418 0 L 94.888 8.85 C 116.311 14.608 129.421 25.8 129.207 45.415 C 128.994 68.23 118.442 77.396 97.872 71.428 L 97.872 26.439 C 97.869 21.002 87.746 20.684 87.746 25.695 L 87.746 25.695 Z" style="fill:#ffffff;fill-opacity:1"/>
    <path id="path9" fill="#F3C202" d="M 49.371 96.05 L 37.009 100.211 C 29.011 102.982 22.191 96.48 29.546 93.811 L 35.514 91.682 L 13.022 84.538 C 6.097 86.885 -0.409 91.896 0.02 98.932 C 0.447 106.074 16.754 107.782 29.332 109.806 C 41.055 111.724 51.716 110.658 61.415 107.245 L 61.415 99.89 L 49.371 96.05 L 49.371 96.05 Z M 87.848 123.558 L 110.766 115.564 L 87.635 108.209 L 87.635 123.027 L 87.848 123.558 L 87.848 123.558 Z" style="fill:#ffffff;fill-opacity:1"/>
    <path id="path11" fill="#326DB3" d="M 148.82 102.13 L 149.246 102.022 C 159.267 98.506 163.53 93.598 162.464 89.017 C 160.759 81.34 148.502 77.183 129.634 75.799 C 116.098 74.838 102.774 77.822 89.77 82.298 L 87.638 83.046 L 110.982 90.299 L 124.623 85.711 C 138.907 83.046 144.665 87.738 130.916 92.109 L 124.092 94.453 L 148.82 102.13 L 148.82 102.13 Z M 61.418 68.23 L 51.079 71.749 L 61.418 74.946 L 61.418 68.23 L 61.418 68.23 Z" style="fill:#ffffff;fill-opacity:1"/>
    <path id="path13" fill="#00AA9E" d="M 110.769 115.561 L 148.82 102.13 L 124.089 94.453 L 87.638 106.927 L 87.638 108.206 L 110.769 115.561 L 110.769 115.561 Z M 61.418 92.001 L 49.374 96.05 L 61.418 99.89 L 61.418 92.001 L 61.418 92.001 Z M 87.635 98.293 L 87.635 83.049 L 110.979 90.299 L 87.635 98.293 L 87.635 98.293 Z M 35.514 91.682 L 61.415 82.406 L 61.415 74.946 L 51.076 71.749 L 13.557 84.433 C 13.452 84.433 13.238 84.538 13.025 84.538 L 35.514 91.682 L 35.514 91.682 Z" style="fill:#ffffff;fill-opacity:1"/>
  </g>
</svg>
